X:1
T:Dahl polska efter Ola Olsson
O:Blekinge
M:3/4
L:1/8
K:A
R:Slängpolska
Q:120
ag/2a/2 e3 d | cB/2c/2 A3 A | Ac e2 gf | f2 e2 z2 :|
|: AA BB cc | dd cc BB | AA BB cc | dd cc BB | a2 e2 (3cBA | B2 A2 z2 :|

